src/chrome/browser/resources/tab_strip/alert_indicators/tab_media_capturing_with_arrow.svg

<svg xmlns="http://www.w3.org/2000/svg" width="16" height="16" viewBox="0 0 16 16"><path d="M0 2h16v12H0V2zm1 1v10h14V3H1zm1 1h12v8H2V4zm5.92 5v2l3.58-3-3.58-3v2C5.14 7 4.38 9 4 11c.93-1.4 1.88-2.04 3.92-2z"/></svg>

<svg xmlns="http://www.w3.org/2000/svg" width="16" height="16" viewBox="0 0 16 16"><path d="M 0 2 L 16 2 L 16 14 L 0 14 L 0 2 Z M 1 3 L 1 13 L 15 13 L 15 3 L 1 3 Z M 2 4 L 14 4 L 14 12 L 2 12 L 2 4 Z M 7.92 9 L 7.92 11 L 11.5 8 L 7.92 5 L 7.92 7 C 5.14 7 4.38 9 4 11 C 4.93 9.6 5.88 8.96 7.92 9 Z" /></svg>
